!!!ONB: MCCC : IGH0229_00 : Extracted Monophonic Melody
!!!COM: Handel, George Frideric
!!!OTL: Keyboard Sonata in C major
!!!SCT: HWV 577
!!!ODT: 1703///
**kern
*staff1
=1
*clefG2
*k[f#]
*G:
*M2/4
8cc
16b
16a
16g
16a
16f
16g
=2
4.e
8f
=3
8g
16a
16g
16f
16g
16e
16f
=4
4d
16r
16g
16cc
16g
=5
16r
16f
16b
16f
16r
16e
16a
16e
=6
16r
16d
16g
16d
16r
16g
16cc
16g
=7
16r
16f
16b
16f
16r
16e
16a
16e
=8
16r
16d
16g
16d
16r
16d
16a
16d
=9
16r
16d
16b
16d
16r
16d
16a
16d
=10
16r
16d
16g
16d
16r
16d
16a
16d
=11
16r
16d
16b
16d
16r
16d
16a
16d
=12
16r
16d
16e
16f#
16g
16a
16b
16cc
=13
16dd
16b
16a
16g
16ee
16cc
16b
16a
=14
16ff#
16dd
16cc
16b
16gg
16dd
16cc
16b
=15
16aa
16ff#
16ee
16dd
16bb
16gg
16ff#
16ee
=16
16ccc
16aa
16gg
16ff#
16bb
16gg
16ff#
16ee
=17
16ff#
16aa
16gg
16aa
16ff#
16aa
16ee
16aa
=18
16dd
16aa
16dd
16aa
16cc
16aa
16cc
16aa
=19
16b
16gg
16b
16gg
16a
16ff#
16a
16ff#
=20
4gg
8cc
8dd
=21
4gg
4gg
=22
4gg
4gg
=23
4gg
4gg
=24
4gg
16gg
16dd
16b
16a
=25
16ee
16cc
16b
16a
16dd
16b
16a
16g
=26
16cc
16a
16g
16f#
16b
16g
16f#
16e
=27
16r
16d
16a
16d
16r
16d
16b
16d
=28
16r
16d
16cc
16d
16r
16d
16b
16d
=29
16r
16d
16a
16d
16r
16d
16b
16d
=30
16r
16d
16cc
16d
16r
16d
16b
16d
=31
16r
16d
16g
16f#
16g
16d
16a
16d
=32
16b
16d
16cc
16d
16dd
16g
16b
16g
=33
16cc
16g
16dd
16g
16ee
16g
16ff#
16g
=34
8gg
16b
16cc
4a
=35
8g
16f#
16e
16d
16g
16c
16g
=36
16B
16g
16B
16g
16A
16f#
16A
16f#
=37
4g
4r
=38
2r
=39
8cc
16b
16a
16g
16a
16f
16g
=40
4.e
8f
=41
8g
16a
16g
16f
16g
16e
16f
=42
4d
16r
16g
16cc
16g
=43
16r
16f
16b
16f
16r
16e
16a
16e
=44
16r
16d
16g
16d
16r
16g
16cc
16g
=45
16r
16f
16b
16f
16r
16e
16a
16e
=46
16r
16d
16g
16d
16r
16d
16a
16d
=47
16r
16d
16b
16d
16r
16d
16a
16d
=48
16r
16d
16g
16d
16r
16d
16a
16d
=49
16r
16d
16b
16d
16r
16d
16a
16d
=50
16r
16d
16e
16f#
16g
16a
16b
16cc
=51
16dd
16b
16a
16g
16ee
16cc
16b
16a
=52
16ff#
16dd
16cc
16b
16gg
16dd
16cc
16b
=53
16aa
16ff#
16ee
16dd
16bb
16gg
16ff#
16ee
=54
16ccc
16aa
16gg
16ff#
16bb
16gg
16ff#
16ee
=55
16ff#
16aa
16gg
16aa
16ff#
16aa
16ee
16aa
=56
16dd
16aa
16dd
16aa
16cc
16aa
16cc
16aa
=57
16b
16gg
16b
16gg
16a
16ff#
16a
16ff#
=58
4gg
8cc
8dd
=59
4gg
4gg
=60
4gg
4gg
=61
4gg
4gg
=62
4gg
16gg
16dd
16b
16a
=63
16ee
16cc
16b
16a
16dd
16b
16a
16g
=64
16cc
16a
16g
16f#
16b
16g
16f#
16e
=65
16r
16d
16a
16d
16r
16d
16b
16d
=66
16r
16d
16cc
16d
16r
16d
16b
16d
=67
16r
16d
16a
16d
16r
16d
16b
16d
=68
16r
16d
16cc
16d
16r
16d
16b
16d
=69
16r
16d
16g
16f#
16g
16d
16a
16d
=70
16b
16d
16cc
16d
16dd
16g
16b
16g
=71
16cc
16g
16dd
16g
16ee
16g
16ff#
16g
=72
8gg
16b
16cc
96r
32a
48b
32a
32b
8a
=73
8g
16f#
16e
16d
16g
16c
16g
=74
16B
16g
16B
16g
16A
16f#
16A
16f#
=75
4g
4r
=76
2r
=77
8gg
16ff
16ee
16dd
16ee
16cc
16dd
=78
4.b
8cc
=79
8dd
16cc
16dd
8ee
8ff
=80
4dd
16r
16cc
16gg
16cc
=81
16r
16b
16ff
16b
16r
16a
16ee
16a
=82
16r
16g
16dd
16g
16r
16f
16cc
16f
=83
16r
16e
16b
16e
16r
16d
16a
16d
=84
16r
16e
16g#
16e
16a
16e
16b
16e
=85
16cc
16e
16g#
16e
16a
16e
16b
16e
=86
8cc
16b
16a
4g#
=87
16r
16a
16cc#
16a
16dd
16a
16ee
16a
=88
16ff
16a
16cc#
16a
16dd
16a
16ee
16a
=89
16ff
16a
16cc#
16a
16dd
16a
16ee
16a
=90
8ff
16ee
16dd
4cc#
=91
4dd
8dd
8dd
=92
8dd
8dd
8dd
8dd
=93
8dd
8dd
8dd
8dd
=94
8dd
16cc
16b
4a
=95
4g
8g
8g
=96
8g
8g
8g
8g
=97
8g
8g
8g
8g
=98
8g
16a
16g
8f
8e
=99
4d
4r
=100
16g
16e
16cc
16g
16gg
16ee
16cc
16g
=101
4ff
4r
=102
16ff
16dd
16b
16g
16ff
16dd
16b
16g
=103
4ee
4r
=104
16ee
16cc
16a
16f
16ee
16cc
16a
16f
=105
4dd
4r
=106
16dd
16b
16g
16e
16dd
16b
16g
16e
=107
4cc
4r
=108
16cc
16a
16f
16d
16cc
16a
16f
16d
=109
4b
4r
=110
2r
=111
16gg
16dd
16b
16g
16gg
16dd
16b
16g
=112
16ff
16dd
16b
16g
16ff
16dd
16b
16g
=113
16ee
16cc
16g
16e
16ee
16cc
16g
16e
=114
16dd
16b
16g
16d
16dd
16b
16g
16d
=115
16gg
16ee
16cc
16g
16gg
16ee
16cc
16g
=116
16ff
16dd
16b
16g
16ff
16dd
16b
16g
=117
16ee
16cc
16g
16e
16ee
16cc
16g
16e
=118
16dd
16b
16g
16d
16dd
16b
16g
16d
=119
4dd
16r
16g
16cc
16g
=120
16r
16f
16b
16f
16r
16e
16a
16e
=121
16r
16d
16g
16d
16r
16g
16cc
16g
=122
16r
16f
16b
16f
16r
16e
16a
16e
=123
16r
16d
16g
16d
16r
16g
16a
16b-
=124
4a
16r
16a
16b
16cc
=125
4b
16r
16b
16dd
16b
=126
16cc
16g
16dd
16g
16ee
16g
16ff
16g
=127
16gg
16cc
16ee
16cc
16ff
16cc
16gg
16cc
=128
16aa
16cc
16bb
16cc
8ccc
8dd
=129
8ee
8ff
4dd
=130
8cc
16b
16a
16g
16cc
16f
16cc
=131
16e
16cc
16e
16cc
16d
16b
16d
16b
=132
4cc
4r
=133
2r
=134
8gg
16ff
16ee
16dd
16ee
16cc
16dd
=135
4.b
8cc
=136
8dd
16cc
16dd
8ee
8ff
=137
4dd
16r
16cc
16gg
16cc
=138
16r
16b
16ff
16b
16r
16a
16ee
16a
=139
16r
16g
16dd
16g
16r
16f
16cc
16f
=140
16r
16e
16b
16e
16r
16d
16a
16d
=141
16r
16e
16g#
16e
16a
16e
16b
16e
=142
16cc
16e
16g#
16e
16a
16e
16b
16e
=143
8cc
16b
16a
4g#
=144
16r
16a
16cc#
16a
16dd
16a
16ee
16a
=145
16ff
16a
16cc#
16a
16dd
16a
16ee
16a
=146
16ff
16a
16cc#
16a
16dd
16a
16ee
16a
=147
8ff
16ee
16dd
4cc#
=148
4dd
8dd
8dd
=149
8dd
8dd
8dd
8dd
=150
8dd
8dd
8dd
8dd
=151
8dd
16cc
16b
96r
32a
48b
32a
32b
8a
=152
4g
8g
8g
=153
8g
8g
8g
8g
=154
8g
8g
8g
8g
=155
8g
16a
16g
8f
8e
=156
4d
4r
=157
16g
16e
16cc
16g
16gg
16ee
16cc
16g
=158
4ff
4r
=159
16ff
16dd
16b
16g
16ff
16dd
16b
16g
=160
4ee
4r
=161
16ee
16cc
16a
16f
16ee
16cc
16a
16f
=162
4dd
4r
=163
16dd
16b
16g
16e
16dd
16b
16g
16e
=164
4cc
4r
=165
16cc
16a
16f
16d
16cc
16a
16f
16d
=166
4b
4r
=167
2r
=168
16gg
16dd
16b
16g
16gg
16dd
16b
16g
=169
16ff
16dd
16b
16g
16ff
16dd
16b
16g
=170
16ee
16cc
16g
16e
16ee
16cc
16g
16e
=171
16dd
16b
16g
16d
16dd
16b
16g
16d
=172
16gg
16ee
16cc
16g
16gg
16ee
16cc
16g
=173
16ff
16dd
16b
16g
16ff
16dd
16b
16g
=174
16ee
16cc
16g
16e
16ee
16cc
16g
16e
=175
16dd
16b
16g
16d
16dd
16b
16g
16d
=176
4dd
16r
16g
16cc
16g
=177
16r
16f
16b
16f
16r
16e
16a
16e
=178
16r
16d
16g
16d
16r
16g
16cc
16g
=179
16r
16f
16b
16f
16r
16e
16a
16e
=180
16r
16d
16g
16d
16r
16g
16a
16b-
=181
4a
16r
16a
16b
16cc
=182
4b
16r
16b
16dd
16b
=183
16cc
16g
16dd
16g
16ee
16g
16ff
16g
=184
16gg
16cc
16ee
16cc
16ff
16cc
16gg
16cc
=185
16aa
16cc
16bb
16cc
8ccc
8dd
=186
8ee
8ff
96r
32dd
48ee
32dd
32ee
8dd
=187
8cc
16b
16a
16g
16cc
16f
16cc
=188
16e
16cc
16e
16cc
16d
16b
16d
16b
=189
4cc
4r
=190
2r
==
*-
